!!!SOCIAL_FUNCTION:	arapaho war song
!!!PDT:	1936
!!!OTL: No_18_Song_of_Contest_Dance.krn
!!!REG: Oklahoma and Montana
!!!LANG: Tone
!!!LING_GROUP: Algonquin
**kern
*staff1
=1-
*clefF4
*k[b-e-]
*M3/4
2f\
8d\L
16d\Jk
16r
=2
8f\L
8f\J
8d\L
8d\J
16d\
16r
8d\
=3
8d\L
8d\J
(8d\L
(8B-\J)
(8B-\L)
8F\J)
=4
2f\
8d\L
16d\Jk
16r
=5
8f\L
8f\J
8d\L
8d\J
16d\
16r
8d\
=6
*M5/8
8d\L
8d\
8d\
8d\J
8r
=7
*M2/4
8f\L
8f\J
8f\L
16d\Jk
16r
=8
8d\L
8d\J
8d\L
8F\J
=9
(8A\L
8G\J)
(8G\L
8F\J)
=10
*M3/4
8F\L
8G\J
8G\L
8D\J
8D\L
8D\J
=11
2D\
4r
=12
4F\
8F\L
8D\J
16D\
16r
8F\
=13
*M2/4
8F\L
8D\J
8D\L
8D\J
=14
2D\
=15
16D\LL
16D\JJ
8r
4r
=16
4.f\
8d\
=17
8d\L
16d\L
16d\JJ
8d\L
16G\Jk
16r
=18
(16c\LL
16B-\J)
[8B-\J
8B-\L]
8F\J
=19
*M3/4
8F\L
8G\J
8G\L
8D\J
8D\L
8D\J
=20
2D\
8D\
8r
=21
4F\
8F\L
8D\J
16D\
16r
8F\
=22
*M2/4
8F\L
8D\J
8D\L
8D\J
=23
*M3/4
2D\
8D\
8r
=24
*M2/4
8f\L
8f\J
8f\L
16d\Jk
16r
=25
8d\L
8d\J
8d\L
8F\J
=26
(8A\L
8G\J)
(8G\L
8F\J)
=27
*M3/4
8F\L
8G\J
8G\L
8D\J
8D\L
8D\J
=28
2D\
4r
=29
4F\
8F\L
8D\J
16D\
16r
8F\
=30
*M2/4
8F\L
8D\J
8D\L
8D\J
=31
2D\
=32
8D\
8r
4r
==
*-
